static/images/mobile/copyright/wikipedia-wordmark-tg.svg

<?xml version="1.0" encoding="UTF-8"?>
<svg width="120px" height="19px" viewBox="0 0 120 19" version="1.1" xmlns="http://www.w3.org/2000/svg" xmlns:xlink="http://www.w3.org/1999/xlink">
    <title>tj-wordmark</title>
    <g id="Page-1" stroke="none" stroke-width="1" fill="none" fill-rule="evenodd">
        <path d="M6.32187479,1.77635684e-15 C10.8717398,1.77635684e-15 11.5812687,2.15849004 11.5812687,3.82221284 C11.5812687,5.16968332 10.4829941,6.4455666 9.2578562,7.07535273 L9.2578562,7.12519193 C11.3864427,7.74682256 13.0247928,9.10969788 13.0247928,11.4947297 C13.0247928,13.6278471 11.7280677,16.1125572 6.86104422,16.1125572 C4.68443084,16.1125572 4.34189967,16.0609057 3.28983967,16.0609057 C2.04295373,16.0609057 1.30895838,16.0862784 0.110099303,16.1125572 C-0.0366997676,15.9630397 -0.0366997676,15.4410874 0.110099303,15.2915699 C1.82275513,15.2181703 2.23777966,15.0940254 2.23777966,13.0343076 L2.23777966,3.07824965 C2.23777966,1.01853182 1.82275513,0.893480763 0.110099303,0.819175061 C-0.0366997676,0.671469823 -0.0366997676,0.149517572 0.110099303,0.000906167102 C1.33342489,0.0244665118 2.04204757,0.0507453577 3.26537315,0.0507453577 C4.31652699,0.0498391906 5.46554688,1.77635684e-15 6.32187479,1.77635684e-15 Z M4.31652699,6.97567435 L6.12704886,6.97567435 C8.15686317,6.97567435 9.60038737,6.22989883 9.60038737,4.12306032 C9.60038737,1.5894171 7.81433201,0.845453906 6.44511352,0.845453906 C4.31652699,0.845453906 4.31652699,1.09193136 4.31652699,1.91201259 L4.31652699,6.97567435 L4.31652699,6.97567435 Z M4.31652699,13.6269409 C4.31652699,14.4470221 4.63459164,15.2906637 6.34724747,15.2906637 C10.0652511,15.2906637 10.7494073,13.7782708 10.7494073,11.9641243 C10.7494073,9.73132851 9.35481608,7.81931593 6.0047163,7.81931593 L4.31652699,7.81931593 L4.31652699,13.6269409 Z M26.6000822,15.5153931 C26.7097284,15.6186962 26.7097284,15.9911309 26.6000822,16.0971524 C25.6821349,16.0790291 25.1502148,16.0609057 24.2331737,16.0609057 C23.2971031,16.0609057 22.7470597,16.0799352 21.8481419,16.0971524 C21.7375895,15.992037 21.7375895,15.6196023 21.8481419,15.5153931 C23.1321807,15.4610231 23.4448084,15.3749372 23.4448084,13.9105712 L23.4448084,7.635364 C23.307071,7.67976619 23.2137357,7.7595089 23.1240252,7.86371811 L18.1129211,13.8580135 C17.8981595,14.1217081 17.7151138,14.2630702 17.5882504,14.6817194 C17.7187384,15.4102777 18.1274198,15.4728033 19.1332653,15.5153931 C19.2438177,15.6205085 19.2438177,15.9911309 19.1332653,16.0971524 C18.215318,16.0781229 17.6833979,16.0609057 16.7663568,16.0609057 C15.8302862,16.0609057 15.2802428,16.0799352 14.381325,16.0971524 C14.2716788,15.992037 14.2716788,15.6214147 14.381325,15.5153931 C15.6653638,15.4619293 15.9779914,15.3749372 15.9779914,13.9105712 L15.9779914,6.84156162 C15.9779914,5.37991409 15.6662699,5.28929738 14.381325,5.23673968 C14.2716788,5.13253047 14.2716788,4.76100196 14.381325,4.65679274 C15.2992723,4.67400991 15.8311924,4.69032092 16.7482335,4.69032092 C17.6843041,4.69032092 18.2343475,4.67219758 19.1332653,4.65679274 C19.2438177,4.76009579 19.2438177,5.1316243 19.1332653,5.23673968 C17.8492265,5.29020354 17.5365988,5.37900792 17.5365988,6.84156162 L17.5365988,13.1158626 C17.6208724,13.1113318 17.7268939,13.0515248 17.8610067,12.922849 L22.9029204,6.89411931 C23.1104327,6.64401719 23.2807921,6.32414021 23.3868137,6.03869757 C23.2508886,5.3409489 22.8385826,5.2775172 21.8472358,5.23764585 C21.7366834,5.13253047 21.7366834,4.76100196 21.8472358,4.65588657 C22.765183,4.67400991 23.2971031,4.69122709 24.2141442,4.69122709 C25.1493087,4.69122709 25.7002583,4.67219758 26.599176,4.65588657 C26.7088223,4.76009579 26.7088223,5.1316243 26.599176,5.23764585 C25.3151373,5.29020354 25.0025096,5.37810175 25.0025096,6.84246779 L25.0025096,13.9105712 C25.0034158,15.3749372 25.3151373,15.4637416 26.6000822,15.5153931 Z M27.8288448,15.7256239 C27.8288448,15.6377257 27.884121,15.5860742 27.9575205,15.5860742 L28.4522878,15.552546 C29.223436,15.4963636 29.4436346,15.3042562 29.4436346,14.8122075 L29.4436346,5.94536236 C29.4436346,5.41616077 29.1681598,5.25758153 28.4522878,5.20411767 L27.9756439,5.16968332 C27.9022443,5.16968332 27.8288448,5.11621946 27.8288448,5.03013359 L27.8288448,4.69485176 L27.8659976,4.66132357 C28.7839449,4.67854075 29.3339884,4.69485176 30.2510295,4.69485176 C31.1689767,4.69485176 31.7008968,4.67672842 32.5998146,4.66132357 L32.6369674,4.69485176 L32.6369674,5.03013359 C32.6369674,5.11893796 32.5816912,5.16968332 32.4901684,5.16968332 L32.0135245,5.20411767 C31.2795291,5.26030003 31.0040543,5.45150129 31.0040543,5.94536236 L31.0040543,9.61080829 C31.6646501,9.61080829 32.4901684,9.59359111 32.9305656,9.34711366 C34.0125291,8.78257156 34.2698806,7.65529968 34.434803,6.66848371 C34.6187549,5.57745851 35.1325516,4.58792404 36.5815128,4.58792404 C37.5538301,4.58792404 37.8845811,5.09809612 37.8845811,5.50405898 C37.8845811,6.01513723 37.4632134,6.20996315 37.0771862,6.20996315 C36.8388643,6.20996315 36.5815128,6.12206494 36.3975609,5.94536236 C36.1954857,5.75053643 36.0486866,5.66263822 35.8103646,5.66263822 C35.2603212,5.66263822 35.1334578,6.24530367 35.0401226,6.75456958 C34.8380473,7.84831327 34.4529263,9.3625185 33.0583351,9.85728574 L33.0583351,9.94609012 C34.3242506,9.94609012 35.0401226,10.7027396 35.5348898,11.9387516 C36.4908961,14.316534 37.4251544,15.5162993 38.0667207,15.568857 L38.3603189,15.5869803 C38.4527479,15.5869803 38.5071179,15.639538 38.5071179,15.7256239 L38.5071179,16.0609057 L38.4889946,16.0971524 L37.0391272,16.0781229 C35.6073832,16.0599996 34.9467874,14.6318802 34.158422,12.6935888 C33.4407377,10.9329061 33.0945818,10.3502406 31.002242,10.3502406 L31.002242,14.8103951 C31.002242,15.3368782 31.2777168,15.4945513 32.0117121,15.5507336 L32.488356,15.5833557 C32.5617556,15.5833557 32.6351551,15.6377257 32.6351551,15.7238116 L32.6351551,16.0599996 L32.5980023,16.0953401 C31.7172078,16.0599996 31.1852877,16.0599996 30.2682466,16.0599996 C29.3502994,16.0599996 28.7631031,16.0599996 27.8641853,16.0953401 L27.8270325,16.0599996 L27.8270325,15.7256239 L27.8288448,15.7256239 L27.8288448,15.7256239 Z M51.8658334,15.5153931 C51.9754796,15.6186962 51.9754796,15.9911309 51.8658334,16.0971524 C50.9487922,16.0790291 50.415966,16.0609057 49.499831,16.0609057 C48.5637604,16.0609057 48.0128108,16.0799352 47.1147992,16.0971524 C47.0042468,15.992037 47.0042468,15.6196023 47.1147992,15.5153931 C48.398838,15.4610231 48.7114657,15.3749372 48.7114657,13.9105712 L48.7114657,7.635364 C48.5746344,7.67976619 48.4803931,7.7595089 48.3906825,7.86371811 L43.3804846,13.8580135 C43.165723,14.1217081 42.9826772,14.2630702 42.8558139,14.6817194 C42.9863019,15.4102777 43.3949833,15.4728033 44.4008288,15.5153931 C44.5113811,15.6205085 44.5113811,15.9911309 44.4008288,16.0971524 C43.4828815,16.0781229 42.9500552,16.0609057 42.0339203,16.0609057 C41.0978497,16.0609057 40.5478062,16.0799352 39.6488885,16.0971524 C39.5383361,15.992037 39.5383361,15.6214147 39.6488885,15.5153931 C40.9329273,15.4619293 41.2455549,15.3749372 41.2455549,13.9105712 L41.2455549,6.84156162 C41.2455549,5.37991409 40.9338334,5.28929738 39.6488885,5.23673968 C39.5383361,5.13253047 39.5383361,4.76100196 39.6488885,4.65679274 C40.5668358,4.67400991 41.0987558,4.69032092 42.015797,4.69032092 C42.9518676,4.69032092 43.501911,4.67219758 44.4008288,4.65679274 C44.5113811,4.76009579 44.5113811,5.1316243 44.4008288,5.23673968 C43.11679,5.29020354 42.8032562,5.37900792 42.8032562,6.84156162 L42.8032562,13.1158626 C42.8884359,13.1113318 42.9944574,13.0515248 43.1285702,12.922849 L48.1695777,6.89411931 C48.37709,6.64401719 48.5474494,6.32414021 48.653471,6.03869757 C48.5175459,5.3409489 48.1052399,5.2775172 47.1138931,5.23764585 C47.0033407,5.13253047 47.0033407,4.76100196 47.1138931,4.65588657 C48.0318403,4.67400991 48.5637604,4.69122709 49.4798954,4.69122709 C50.415966,4.69122709 50.9669156,4.67219758 51.8658334,4.65588657 C51.9754796,4.76009579 51.9754796,5.1316243 51.8658334,5.23764585 C50.5808884,5.29020354 50.2691669,5.37810175 50.2691669,6.84246779 L50.2691669,13.9105712 C50.2691669,15.3749372 50.5808884,15.4637416 51.8658334,15.5153931 Z M64.8756744,4.65951124 C64.9853207,4.76281429 64.9853207,5.1343428 64.8756744,5.23945819 C63.5907295,5.29292204 63.279008,5.38082025 63.279008,6.84428012 L63.279008,13.9132897 C63.279008,15.3767496 63.5907295,15.4646478 64.8756744,15.5181116 C64.9853207,15.623227 64.9853207,15.9938494 64.8756744,16.0998709 C63.9767567,16.0808414 63.4258071,16.0636242 62.4897365,16.0636242 C61.5726954,16.0636242 61.0398691,16.0826537 60.1237342,16.0998709 C60.0140879,15.9947555 60.0140879,15.6241332 60.1237342,15.5181116 C61.4077729,15.4646478 61.7204006,15.3776557 61.7204006,13.9132897 L61.7204006,6.70382422 C61.7204006,5.61189286 61.3171562,5.40075593 60.8758529,5.40075593 L57.2611523,5.40075593 C56.8216612,5.40075593 56.4166045,5.61008053 56.4166045,6.70382422 L56.4166045,13.9132897 C56.4166045,15.3767496 56.728326,15.4646478 58.013271,15.5181116 C58.1247295,15.623227 58.1247295,15.9938494 58.013271,16.0998709 C57.0962299,16.0808414 56.5634036,16.0636242 55.6472687,16.0636242 C54.7111981,16.0636242 54.1602485,16.0826537 53.2613307,16.0998709 C53.1516845,15.9947555 53.1516845,15.6241332 53.2613307,15.5181116 C54.5462756,15.4646478 54.8579971,15.3776557 54.8579971,13.9132897 L54.8579971,6.84428012 C54.8579971,5.38263259 54.5462756,5.29201588 53.2613307,5.23945819 C53.1516845,5.13524897 53.1516845,4.76372046 53.2613307,4.65951124 C54.179278,4.67672842 55.2059653,4.69303942 55.6291453,4.69303942 L62.508766,4.69303942 C63.0035332,4.69303942 63.9586333,4.67491608 64.8756744,4.65951124 Z M72.8571943,8.49894125 C72.9677467,8.39382587 73.3528677,8.39382587 73.4634201,8.49894125 C73.4443906,9.02995517 73.4262672,9.41507619 73.4262672,10.015865 C73.4262672,10.6139353 73.4452967,10.9483109 73.4634201,11.5681292 C73.3528677,11.6705261 72.9677467,11.6705261 72.8571943,11.5681292 C72.8019181,10.7743268 72.7475481,10.3665517 71.1880345,10.3665517 L69.5170623,10.3665517 L69.5170623,14.614663 C69.5170623,15.0913069 69.7735076,15.3740311 70.1776582,15.3740311 L72.6741485,15.3740311 C74.0678335,15.3740311 74.7112122,14.3328451 75.0763975,13.0642111 C75.3183441,13.0071226 75.5276687,13.0451816 75.71887,13.1521093 C75.5720709,14.0510271 75.2965961,15.2145456 75.0401508,16.0962462 C75.0401508,16.0962462 73.5721601,16.0599996 72.6913657,16.0599996 L68.7459141,16.0599996 C68.7459141,16.0599996 67.2588939,16.0790291 66.3599762,16.0962462 C66.2503299,15.9911309 66.2503299,15.6196023 66.3599762,15.5135808 C67.6449211,15.4610231 67.9566426,15.3740311 67.9566426,13.909665 L67.9566426,6.84065546 C67.9566426,5.37810175 67.6449211,5.28929738 66.3599762,5.23583352 C66.2503299,5.1316243 66.2503299,4.76009579 66.3599762,4.65588657 C67.2788296,4.67310375 68.7268846,4.68941475 68.7268846,4.68941475 L73.4054254,4.68941475 C73.8458226,4.68941475 73.9926217,4.67129141 74.3043431,4.61873372 C74.3605255,4.61873372 74.3768365,4.63776323 74.3768365,4.67310375 C74.4139894,4.81355965 74.6903703,6.50446746 74.7800809,7.22668264 C74.6015659,7.31186235 74.4022092,7.34810903 74.1747612,7.31729935 C73.7715169,6.1012231 73.4770126,5.39622509 72.1014509,5.39622509 L70.1749397,5.39622509 C69.7363548,5.39622509 69.5143438,5.74781793 69.5143438,6.1700918 L69.5143438,9.69508183 L71.1844098,9.69508183 C72.7475481,9.69689416 72.8028243,9.46944622 72.8571943,8.49894125 Z M80.252424,10.7552973 C80.6547622,8.74632487 80.875867,6.93127217 80.875867,5.8203113 C80.875867,5.45059512 80.7100384,5.26845553 80.2333945,5.22224101 L79.6833511,5.16787098 C79.590922,5.16787098 79.5374582,5.13343663 79.5374582,5.06184943 L79.5374582,4.69303942 L79.5737048,4.65951124 C79.5737048,4.65951124 80.8577436,4.69303942 81.4068809,4.69303942 L86.195974,4.69303942 C86.7460175,4.69303942 88.1958848,4.65951124 88.1958848,4.65951124 L88.2330377,4.69303942 L88.2330377,5.02832125 C88.2330377,5.13343663 88.1605443,5.16243398 88.0862386,5.16787098 L87.5534123,5.20230533 C86.9644037,5.24127052 86.8755994,5.46690613 86.8755994,6.10303543 L86.8755994,14.6862502 C86.8755994,15.3377844 87.2879054,15.5326103 87.6105009,15.585168 C88.0083082,15.6513182 88.1496703,15.7102191 88.1605443,15.9204498 L88.28922,18.5283987 C87.7935466,18.5283987 87.7935466,18.5474283 87.7935466,18.5474283 C87.573348,17.5606123 86.9127522,16.0618119 85.4438553,16.0618119 L80.1237483,16.0618119 C78.5995752,16.0618119 78.1238375,17.6312933 77.9217622,18.5474283 L77.4251826,18.5283987 L77.5538584,15.9204498 C77.5665447,15.7102191 77.7586521,15.6114468 77.9407917,15.585168 C78.2996339,15.5317041 78.5923259,15.4891143 78.8578328,15.232669 C79.3381014,14.7741484 79.6661339,13.5046083 80.252424,10.7552973 Z M82.3810105,5.39713126 C81.8871495,5.39713126 81.7031975,5.64451488 81.6660447,6.08491209 C81.5174333,7.86462428 81.2265536,9.69689416 81.0054489,10.8966594 C80.6022045,12.9581896 80.1436839,14.7043736 80.1436839,15.0731836 C80.1436839,15.2843205 80.3829121,15.3740311 80.6393574,15.3740311 L84.6573023,15.3740311 C85.0976995,15.3740311 85.3178981,15.319661 85.3178981,14.6681269 L85.3178981,6.08309976 C85.3178981,5.536681 85.2073457,5.39713126 84.6391789,5.39713126 L82.3810105,5.39713126 L82.3810105,5.39713126 Z M102.271378,15.5153931 C102.381931,15.6186962 102.381931,15.9911309 102.271378,16.0971524 C101.353431,16.0790291 100.821511,16.0609057 99.9044699,16.0609057 C98.9702117,16.0609057 98.4183559,16.0799352 97.5203443,16.0971524 C97.4106981,15.992037 97.4106981,15.6196023 97.5203443,15.5153931 C98.8034769,15.4610231 99.1170107,15.3749372 99.1170107,13.9105712 L99.1170107,7.635364 C98.9792733,7.67976619 98.885032,7.7595089 98.7962276,7.86371811 L93.7851235,13.8580135 C93.5721742,14.1217081 93.3882223,14.2630702 93.2613589,14.6817194 C93.3927532,15.4102777 93.8014345,15.4728033 94.8063738,15.5153931 C94.91602,15.6205085 94.91602,15.9911309 94.8063738,16.0971524 C93.8884266,16.0781229 93.3556003,16.0609057 92.4403715,16.0609057 C91.5043009,16.0609057 90.9533513,16.0799352 90.0544335,16.0971524 C89.9447873,15.992037 89.9447873,15.6214147 90.0544335,15.5153931 C91.3393785,15.4619293 91.6511,15.3749372 91.6511,13.9105712 L91.6511,6.84156162 C91.6511,5.37991409 91.3393785,5.28929738 90.0544335,5.23673968 C89.9447873,5.13253047 89.9447873,4.76100196 90.0544335,4.65679274 C90.9723808,4.67400991 91.5043009,4.69032092 92.4204359,4.69032092 C93.3556003,4.69032092 93.9074561,4.67219758 94.8063738,4.65679274 C94.91602,4.76009579 94.91602,5.1316243 94.8063738,5.23673968 C93.5214289,5.29020354 93.2088012,5.37900792 93.2088012,6.84156162 L93.2088012,13.1158626 C93.2948871,13.1113318 93.4000025,13.0515248 93.5332091,12.922849 L98.5751228,6.89411931 C98.7826351,6.64401719 98.9520883,6.32414021 99.059016,6.03869757 C98.9239971,5.3409489 98.5116911,5.2775172 97.5203443,5.23764585 C97.4106981,5.13253047 97.4106981,4.76100196 97.5203443,4.65588657 C98.4373854,4.67400991 98.9702117,4.69122709 99.8863466,4.69122709 C100.821511,4.69122709 101.373367,4.67219758 102.271378,4.65588657 C102.381931,4.76009579 102.381931,5.1316243 102.271378,5.23764585 C100.98734,5.29020354 100.674712,5.37810175 100.674712,6.84246779 L100.674712,13.9105712 C100.674712,15.3749372 100.98734,15.4637416 102.271378,15.5153931 Z M107.873434,15.3541261 L108.579654,15.4037675 C108.677064,15.4037675 108.774473,15.4768248 108.774473,15.5976502 L108.774473,16.0603461 L108.725768,16.1099876 C108.725768,16.1099876 106.071355,16.0603461 105.486897,16.0603461 C104.852798,16.0603461 103.294243,16.1099876 103.294243,16.1099876 L103.244602,16.0603461 L103.244602,15.5976502 C103.244602,15.4768248 103.317659,15.4037675 103.440358,15.4037675 C104.512801,15.3307103 105.119738,15.1349543 105.801605,13.5763997 L111.206905,0.912207225 C111.473845,0.279044431 111.669601,0.0345836478 112.03676,0.0345836478 C112.375821,0.0345836478 112.498519,0.279044431 112.692402,0.766092734 L117.684647,13.9651018 C118.026518,14.9157826 118.514503,15.2801322 119.488599,15.3775418 L119.755539,15.4009576 C119.878238,15.4009576 120,15.4730782 120,15.5967136 L120,16.0575362 L119.926943,16.1071777 C119.926943,16.1071777 118.051807,16.0575362 117.101126,16.0575362 C116.248791,16.0575362 113.861318,16.1071777 113.861318,16.1071777 L113.838839,16.0575362 L113.838839,15.5967136 C113.838839,15.4730782 113.887544,15.4009576 114.012116,15.4009576 L114.693983,15.3513162 C115.618439,15.2791955 115.961246,14.9850933 115.716785,14.3050989 L114.231287,10.1876675 L109.164112,10.1876675 C108.579654,10.1876675 108.433539,10.2850772 108.312714,10.5997853 L106.899337,14.1318221 C106.655813,14.744379 106.972395,15.2810688 107.873434,15.3541261 Z M113.839776,9.16673934 L111.477591,2.66558112 L111.428886,2.66558112 L108.993645,8.85109457 C108.896235,9.09649199 109.065766,9.16767597 109.601519,9.16767597 L113.839776,9.16767597 L113.839776,9.16673934 Z" id="tj-wordmark" fill="#000000" fill-rule="nonzero"></path>
    </g>
</svg>

<svg xmlns="http://www.w3.org/2000/svg" width="120" height="19"><path fill="#000" fill-rule="nonzero" d="M6.322 0c4.55 0 5.26 2.158 5.26 3.822 0 1.348-1.099 2.624-2.324 3.253v.05c2.128.622 3.767 1.985 3.767 4.37 0 2.133-1.297 4.618-6.164 4.618-2.177 0-2.52-.052-3.571-.052-1.247 0-1.981.025-3.18.052-.147-.15-.147-.672 0-.821 1.713-.074 2.128-.198 2.128-2.258V3.078C2.238 1.018 1.823.893.11.82-.037.671-.037.15.11.001c1.223.023 1.932.05 3.155.05C4.317.05 5.465 0 6.322 0ZM4.317 6.976h1.81c2.03 0 3.473-.746 3.473-2.853C9.6 1.59 7.814.845 6.445.845c-2.128 0-2.128.247-2.128 1.067v5.064Zm0 6.65c0 .821.318 1.665 2.03 1.665 3.718 0 4.402-1.513 4.402-3.327 0-2.233-1.394-4.145-4.744-4.145H4.317v5.808Zm22.283 1.89c.11.103.11.475 0 .581-.918-.018-1.45-.036-2.367-.036-.936 0-1.486.019-2.385.036-.11-.105-.11-.477 0-.582 1.284-.054 1.597-.14 1.597-1.604V7.635a.69.69 0 0 0-.321.229l-5.011 5.994c-.215.264-.398.405-.525.824.13.728.54.79 1.545.833.11.106.11.476 0 .582-.918-.019-1.45-.036-2.367-.036-.936 0-1.486.019-2.385.036-.11-.105-.11-.476 0-.582 1.284-.053 1.597-.14 1.597-1.604V6.84c0-1.461-.312-1.552-1.597-1.604-.11-.104-.11-.476 0-.58.918.017 1.45.033 2.367.033.936 0 1.486-.018 2.385-.033.11.103.11.475 0 .58-1.284.053-1.596.142-1.596 1.605v6.274c.084-.005.19-.064.324-.193l5.042-6.029c.207-.25.378-.57.484-.855-.136-.698-.548-.761-1.54-.801-.11-.105-.11-.477 0-.582.918.018 1.45.035 2.367.035.935 0 1.486-.019 2.385-.035.11.104.11.476 0 .582-1.284.052-1.596.14-1.596 1.604v7.069c0 1.464.312 1.553 1.597 1.604Zm1.229.21c0-.088.055-.14.129-.14l.494-.033c.771-.057.992-.249.992-.74V5.944c0-.529-.276-.687-.992-.74l-.476-.035c-.074 0-.147-.054-.147-.14v-.335l.037-.034c.918.018 1.468.034 2.385.034.918 0 1.45-.018 2.349-.034l.037.034v.335c0 .089-.055.14-.147.14l-.476.034c-.734.056-1.01.248-1.01.741v3.666c.66 0 1.486-.017 1.927-.264 1.082-.564 1.339-1.692 1.504-2.679.184-1.09.698-2.08 2.147-2.08.972 0 1.303.51 1.303.916 0 .511-.422.706-.808.706a.996.996 0 0 1-.68-.265c-.202-.194-.348-.282-.587-.282-.55 0-.677.582-.77 1.092-.202 1.093-.587 2.608-1.982 3.102v.09c1.266 0 1.982.756 2.477 1.992.956 2.378 1.89 3.577 2.532 3.63l.293.018c.093 0 .147.053.147.139v.335l-.018.036-1.45-.019c-1.432-.018-2.092-1.446-2.88-3.384-.718-1.761-1.064-2.344-3.157-2.344v4.46c0 .527.276.685 1.01.74l.476.033c.074 0 .147.055.147.14v.337l-.037.035c-.88-.035-1.413-.035-2.33-.035-.918 0-1.505 0-2.404.035l-.037-.035v-.334h.002Zm24.037-.21c.11.103.11.475 0 .581-.917-.018-1.45-.036-2.366-.036-.936 0-1.487.019-2.385.036-.11-.105-.11-.477 0-.582 1.284-.054 1.596-.14 1.596-1.604V7.635a.694.694 0 0 0-.32.229l-5.01 5.994c-.215.264-.398.405-.525.824.13.728.539.79 1.545.833.11.106.11.476 0 .582-.918-.019-1.45-.036-2.367-.036-.936 0-1.486.019-2.385.036-.11-.105-.11-.476 0-.582 1.284-.053 1.597-.14 1.597-1.604V6.84c0-1.461-.312-1.552-1.597-1.604-.11-.104-.11-.476 0-.58.918.017 1.45.033 2.367.033.936 0 1.486-.018 2.385-.033.11.103.11.475 0 .58-1.284.053-1.598.142-1.598 1.605v6.274c.085-.005.191-.064.326-.193l5.04-6.029c.208-.25.378-.57.484-.855-.135-.698-.548-.761-1.54-.801-.11-.105-.11-.477 0-.582.919.018 1.45.035 2.367.035.936 0 1.487-.019 2.386-.035.11.104.11.476 0 .582-1.285.052-1.597.14-1.597 1.604v7.069c0 1.464.312 1.553 1.597 1.604ZM64.876 4.66c.11.103.11.474 0 .58-1.285.053-1.597.14-1.597 1.604v7.07c0 1.463.312 1.55 1.597 1.604.11.105.11.476 0 .582-.9-.02-1.45-.036-2.386-.036-.917 0-1.45.019-2.366.036-.11-.105-.11-.476 0-.582 1.284-.053 1.596-.14 1.596-1.605v-7.21c0-1.091-.403-1.302-.844-1.302H57.26c-.44 0-.844.21-.844 1.303v7.21c0 1.463.311 1.55 1.596 1.604.112.105.112.476 0 .582-.917-.02-1.45-.036-2.366-.036-.936 0-1.487.019-2.386.036-.11-.105-.11-.476 0-.582 1.285-.053 1.597-.14 1.597-1.605V6.844c0-1.461-.312-1.552-1.597-1.605-.11-.104-.11-.475 0-.58.918.018 1.945.034 2.368.034h6.88c.495 0 1.45-.018 2.367-.033Zm7.981 3.839c.11-.105.496-.105.606 0-.019.531-.037.916-.037 1.517 0 .598.02.932.037 1.552-.11.103-.495.103-.606 0-.055-.794-.11-1.201-1.669-1.201h-1.67v4.248c0 .476.256.759.66.759h2.496c1.394 0 2.037-1.041 2.402-2.31a.858.858 0 0 1 .643.088 27.505 27.505 0 0 1-.679 2.944s-1.468-.036-2.349-.036h-3.945s-1.487.019-2.386.036c-.11-.105-.11-.476 0-.582 1.285-.053 1.597-.14 1.597-1.604V6.84c0-1.462-.312-1.55-1.597-1.604-.11-.104-.11-.476 0-.58.919.017 2.367.033 2.367.033h4.678c.44 0 .588-.018.9-.07.056 0 .072.019.072.054.037.14.313 1.831.403 2.554a1.045 1.045 0 0 1-.605.09c-.403-1.216-.698-1.92-2.074-1.92h-1.926c-.439 0-.66.35-.66.773v3.525h1.67c1.563.002 1.618-.226 1.672-1.196Zm7.395 2.256c.403-2.009.624-3.824.624-4.935 0-.37-.166-.552-.643-.598l-.55-.054c-.092 0-.146-.035-.146-.106v-.369l.037-.033s1.284.033 1.833.033h4.789c.55 0 2-.033 2-.033l.037.033v.335c0 .105-.072.134-.147.14l-.533.034c-.589.04-.677.265-.677.901v8.583c0 .652.412.847.735.9.397.065.539.124.55.334l.128 2.608c-.495 0-.495.02-.495.02-.22-.987-.881-2.486-2.35-2.486h-5.32c-1.524 0-2 1.57-2.202 2.485l-.497-.019.129-2.608c.013-.21.205-.309.387-.335.359-.053.651-.096.917-.352.48-.459.808-1.728 1.394-4.478Zm2.129-5.358c-.494 0-.678.248-.715.688a51.81 51.81 0 0 1-.66 4.812c-.404 2.061-.862 3.807-.862 4.176 0 .211.239.301.495.301h4.018c.44 0 .66-.054.66-.706V6.083c0-.546-.11-.686-.678-.686h-2.258Zm19.89 10.118c.11.104.11.476 0 .582-.918-.018-1.45-.036-2.367-.036-.934 0-1.486.019-2.384.036-.11-.105-.11-.477 0-.582 1.283-.054 1.597-.14 1.597-1.604V7.635a.685.685 0 0 0-.32.229l-5.012 5.994c-.213.264-.397.405-.524.824.132.728.54.79 1.545.833.11.106.11.476 0 .582-.918-.019-1.45-.036-2.366-.036-.936 0-1.487.019-2.386.036-.11-.105-.11-.476 0-.582 1.285-.053 1.597-.14 1.597-1.604V6.84c0-1.461-.312-1.552-1.597-1.604-.11-.104-.11-.476 0-.58.918.017 1.45.033 2.366.033.936 0 1.487-.018 2.386-.033.11.103.11.475 0 .58-1.285.053-1.597.142-1.597 1.605v6.274c.086-.005.191-.064.324-.193l5.042-6.029c.208-.25.377-.57.484-.855-.135-.698-.547-.761-1.539-.801-.11-.105-.11-.477 0-.582.917.018 1.45.035 2.366.035.936 0 1.487-.019 2.385-.035.11.104.11.476 0 .582-1.284.052-1.596.14-1.596 1.604v7.069c0 1.464.312 1.553 1.596 1.604Zm5.602-.16.707.049c.097 0 .194.073.194.194v.462l-.048.05s-2.655-.05-3.24-.05c-.633 0-2.192.05-2.192.05l-.05-.05v-.462c0-.121.074-.194.196-.194 1.073-.073 1.68-.269 2.362-1.828L111.207.912c.267-.633.463-.877.83-.877.339 0 .462.244.655.731l4.993 13.2c.342.95.83 1.314 1.804 1.412l.267.023c.122 0 .244.072.244.196v.46l-.073.05s-1.875-.05-2.826-.05c-.852 0-3.24.05-3.24.05l-.022-.05v-.46c0-.124.049-.196.173-.196l.682-.05c.924-.072 1.267-.366 1.023-1.046l-1.486-4.117h-5.067c-.584 0-.73.097-.851.412l-1.414 3.532c-.243.612.073 1.15.974 1.222Zm5.967-6.188-2.362-6.501h-.05l-2.434 6.185c-.098.245.072.317.608.317h4.238v-.001Z"/></svg>
